X: 974
T: Three-in-One Two-Step
B: jims roots
M:4/4
L:1/8
R: Country Rag
Q: 1/4=100
K:F
V:1 
%N:Milliner &#038; Koken transcribe an fourth part to the tune.
f gf || "F"afga- afcf | "G"afga- afdf | "C"afga- afcd | "F"f4c3f ||
|: "F"afga fgaf | gefg afge | fedA cAfe | dcAf- f3 g/f/  | "C"ecdA cdec |
dAcd ec2e | [1 "F"fAdA cAfe | dcAf- f2cA :| [2 "C"fedA cA G2 | "F"F6c2 ||
"C"C4DDED | "F"FAdc- cdcD | "C"EAdc- cdcA | "F"FAdc- cdcA | "C"CCCD- D_E=EE |
"F"FAdc- cdcD | "G"GABc de (3fgf | "C"ecdA cABG || "C"C4 DDED | "F"FAdc- cdcD |
"C"EAdc- cdcA | "F"FAdc- ccde | fgfd cAcA |"Bb"d^cdG- GBAB| "G"=cAcA- "C"AGA2 | "F"F6C2 ||
"F"A2A2- AAAd | "Bb"B4 "F (D)"A3A | "G"DEFD EFED | GABG ABAD | "C"E2E2- EEDE |
A4 G3D | "F"FEFG ABcd | "C"egec dAcA || "F"A2A2- AAAA | "Bb"B4 "F (D)"A2 (3DEF |
"Bb"G^FGA BABc | "G#7"d6 dA | "F"cAB=B cAFG | AA2F C2 DE |
FG_A=A- AFDC | "G"GG_A=A- AFDC | "C"FG_A=A- AEGE | "F"F6|]
% abcbook-tune_id 6298c297ce4e69881a05e52a


% abcbook-boost 0
% abcbook-tablature 
% abcbook-transpose 
% abcbook-lastupdated 1654178456172
% abcbook-soundfonts 
% abcbook-repeats 1


